X: 38546
T: Sterling Tom
R: reel
M: 4/4
K: Gmajor
|:g2|gdBd GdBG|(3FGA dA FDDf|gdBd GdBd|efga bggf|
gdBd GdBG|(3FGA dA FDDF|GBdg bagf|1 gdBd G2:|2 gdBd G2B2||
|:e3f g3a|b^abc' b=agf|e^def g2 ea|bgfe edcB|
eBfB gBaB|b2 (3gab ac'ba|gfe^d ecBA|1 G2 F2 EFGB:|2 G2FG E2||

